X:1
T:Jeg går i tusind tanker
R:Sönderhoning
R:Sønderhoning
O:Fanø, Danmark
B:Spelmansmusik
M:2/4
L:1/8
K:D
A|"D"F>E FA|D2 FD|"A"EF GA|"D"BA dA|
|"D"F>E FA|D2 FD|"A"EF GA|"D"D2 z||
A|"D"AF dd|"A"cE Ec|"Bm"d>c "E"dB|"A"A3 A|
"D"F>E FA|D2 FD|"A"EG CE|"D"D2 z]|

